T: Haunted House, The
M: 6/8
L: 1/8
K: Gmaj
D|G2G AGA|BGE EDE|GBd egd|egd edB|!G2G AGA|BGE EDE|GBd ege|dBA G2:|!D|GBd egd|egd edB|GBd ded|ded dBA|![1 GBd egd|egd edB|GBd ege|dBA G2:|![2 G2G AGA|BGE EDE|GBd ege|dBA G2|]!
